icons/sign-in-16.svg

<svg width="16" height="16" viewBox="0 0 16 16" xmlns="http://www.w3.org/2000/svg">
  <path fill-rule="evenodd" clip-rule="evenodd" d="M2 2.75C2 1.7835 2.7835 1 3.75 1H6.25C6.66421 1 7 1.33579 7 1.75C7 2.16421 6.66421 2.5 6.25 2.5H3.75C3.61193 2.5 3.5 2.61193 3.5 2.75V13.25C3.5 13.3881 3.61193 13.5 3.75 13.5H6.25C6.66421 13.5 7 13.8358 7 14.25C7 14.6642 6.66421 15 6.25 15H3.75C2.7835 15 2 14.2165 2 13.25V2.75ZM8.56066 7.25L10.5303 5.28033C10.8232 4.98744 10.8232 4.51256 10.5303 4.21967C10.2374 3.92678 9.76256 3.92678 9.46967 4.21967L6.21967 7.46967C5.92678 7.76256 5.92678 8.23744 6.21967 8.53033L9.46967 11.7803C9.76256 12.0732 10.2374 12.0732 10.5303 11.7803C10.8232 11.4874 10.8232 11.0126 10.5303 10.7197L8.56066 8.75L14.25 8.75C14.6642 8.75 15 8.41421 15 8C15 7.58578 14.6642 7.25 14.25 7.25L8.56066 7.25Z"/>
</svg>

<svg xmlns="http://www.w3.org/2000/svg" width="16" height="16" viewBox="0 0 16 16"><path fill-rule="evenodd" d="M2 2.75C2 1.784 2.784 1 3.75 1h2.5a.75.75 0 010 1.5h-2.5a.25.25 0 00-.25.25v10.5c0 .138.112.25.25.25h2.5a.75.75 0 010 1.5h-2.5A1.75 1.75 0 012 13.25V2.75zm6.56 4.5l1.97-1.97a.75.75 0 10-1.06-1.06L6.22 7.47a.75.75 0 000 1.06l3.25 3.25a.75.75 0 101.06-1.06L8.56 8.75h5.69a.75.75 0 000-1.5H8.56z"/></svg>
